icons/shield-cross.svg

<svg xmlns="http://www.w3.org/2000/svg" width="24" height="24" viewBox="0 0 24 24">
  <path d="M12,1 C15.3333333,1 18.3333333,2 21,4 L21,13 C20.9981811,16.3304863 19.073592,19.5406076 16.0275,21.031 L12,23 L7.9725,21.031 C4.926408,19.5406076 3.00181891,16.3304863 3,13 L3,4 C5.66666667,2 8.66666667,1 12,1 Z M10.6128994,9.20970461 C10.2206082,8.90467972 9.65337718,8.93240926 9.29289322,9.29289322 C8.90236893,9.68341751 8.90236893,10.3165825 9.29289322,10.7071068 L9.29289322,10.7071068 L10.585,12 L9.29289322,13.2928932 L9.20970461,13.3871006 C8.90467972,13.7793918 8.93240926,14.3466228 9.29289322,14.7071068 C9.68341751,15.0976311 10.3165825,15.0976311 10.7071068,14.7071068 L10.7071068,14.7071068 L12,13.415 L13.2928932,14.7071068 L13.3871006,14.7902954 C13.7793918,15.0953203 14.3466228,15.0675907 14.7071068,14.7071068 C15.0976311,14.3165825 15.0976311,13.6834175 14.7071068,13.2928932 L14.7071068,13.2928932 L13.415,12 L14.7071068,10.7071068 L14.7902954,10.6128994 C15.0953203,10.2206082 15.0675907,9.65337718 14.7071068,9.29289322 C14.3165825,8.90236893 13.6834175,8.90236893 13.2928932,9.29289322 L13.2928932,9.29289322 L12,10.585 L10.7071068,9.29289322 Z"/>
</svg>

<svg xmlns="http://www.w3.org/2000/svg" viewBox="0 0 24 24">
  <path d="M12 1c3.33 0 6.33 1 9 3v9a9.03 9.03 0 0 1-4.97 8.03L12 23l-4.03-1.97A9.03 9.03 0 0 1 3 13V4c2.67-2 5.67-3 9-3zm-1.39 8.21a1 1 0 0 0-1.32 1.5L10.6 12l-1.3 1.3-.08.09a1 1 0 0 0 1.5 1.32L12 13.4l1.3 1.3.09.08a1 1 0 0 0 1.32-1.5L13.4 12l1.3-1.3.08-.09a1 1 0 0 0-1.5-1.32L12 10.6l-1.3-1.3z"/>
</svg>
